X:1
T:James Gibb editions
T:Praise, O Sion, thy salvation - Barnby
%%score [ ( 1 2 ) ( 3 4 ) ]
L:1/8
Q:1/4=76
M:4/4
K:G
V:1 treble nm="Midi_74"
V:2 treble 
V:3 bass nm="Midi_74"
V:4 bass 
V:1
"^Praise, O Sion, thy salvation""^Thomas Aquinas (trans.)\n(1225-74)""^887. 887""^Joseph Barnby\n(1838-96)"!f! G2 G2 | %1
 d2 d2 c2 d2 | B2 G2 || B2 B2 | A2 A2 G2 A2 | F2 D2 || A2 A2 | G2 F2 E2 E2 | D4 ||[M:4/4] A2 A2 | %10
 d2 B2 c2 d2 | B2 G2 || c2 B2 | A2 A2 G2 A2 | F2 D2 || G2 G2 | c2 B2 A2 A2 | G4 || G4 G4 |] %19
V:2
 D2 D2 | D2 F2 E2 D2 | D2 D2 || D2 E2 | E2 ^C2 D2 E2 | D2 D2 || ^C2 D2 | DE D2 D2 ^C2 | D4 || %9
[M:4/4] F2 F2 | G2 G2 A2 A2 | G2 G2 || G2 G2 | F2 F2 E2 E2 | D2 D2 || D2 B,2 | C2 DE A,B, C2 | %17
 B,4 || E4 D4 |] %19
V:3
 B,2 B,2 | A,2 A,2 G,2 A,2 | G,2 B,2 || G,2 G,2 | A,2 A,2 D,2 A,2 | A,2 F,2 || G,2 A,2 | %7
 B,E, F,G, A,3 G, | F,4 || %9
[M:4/4]"^1 Praise, O Sion, thy salvation,\nLaud with hymns of exultation\nChrist, thy King and Shepherd true:\nSpend thyself, his honour raising,\nWho surpasseth all thy praising;\nNever canst thou reach his due.\n\n2 Sing today, the mystery showing\nOf the living, life-bestowing\nBread from heaven before thee set;\nE'en the same of old provided,\nWhere the Twelve, divinely guided.\nAt the holy Table met.\n\n3 Full and clear ring out thy chanting,\nJoy nor sweetest grace be wanting\nTo thy heart and soul today;\nWhen we gather up the measure\nOf that Supper and its treasure,\nKeeping feast in glad array.\n\n4 Lo, the new King's Table gracing,\nThis new Passover of blessing\nHath fulfilled the elder rite:\nNow the new the old effaceth,\nTruth revealed the shadow chaseth,\nDay is breaking on the night." D2 D2 | %10
 D2 D2 E2 D2 | D2 ED || C2 C2 | C2 B,2 B,2 C2 | %14
"^5 What he did at Supper seated,\nChrist ordained to be repeated,\nHis memorial ne'er to cease:\nAnd, his word for guidance taking,\nBread and wine we hallow, making\nThus our Sacrifice of peace.\n\n6 This the truth to Christians given -\nBread becomes his Flesh from heaven.\nWine becomes his holy Blood.\nDoth it pass thy comprehending?\nYet by faith, thy sight transcending,\nWondrous things are understood.\n\n7 Yea, beneath these signs are hidden\nGlorious things to sight forbidden:\nLook not on the outward sign.\nWine is poured and Bread is broken,\nBut in either sacred token\nChrist is here by power divine.\n\n8 Whoso of this Food partaketh,\nChrist divideth not nor breaketh:\nHe is whole to all that taste.\nThousands are, as one, receivers,\nOne, as thousands of believers,\nTakes the Food that cannot waste." C2 B,A, || %15
 G,2 G,2 | G,F, G,2 G,2 F,2 | G,4 || (G,2 A,2) B,4 |] %19
V:4
 G,2 G,2 | F,2 D,2 E,2 F,2 | G,2 G,2 || G,2 E,2 | ^C,2 A,,2 B,,2 C,2 | D,2 D,2 || E,2 F,2 | %7
 B,,^C, D,2 A,,2 A,,2 | D,4 ||[M:4/4] D,2 !courtesy!=C,2 | B,,2 G,2 G,2 =F,2 | =F,2 G,F, || %12
 E,2 E,2 | E,2 ^D,2 E,2 A,,2 | D,2 C,2 || B,,2 E,2 | A,,2 B,,C, D,2 D,2 | G,,4 || C,4 G,,4 |] %19

